dist/images/logo_fox.svg

<svg width="58" height="35" viewBox="0 0 58 35" fill="none" xmlns="http://www.w3.org/2000/svg">
<path d="M57.2659 29.8486H49.4356C49.3636 29.8486 49.2321 29.5314 49.1946 29.4655C48.1176 27.5153 47.0405 25.5557 45.9698 23.6086C44.8239 25.6813 43.7094 27.7885 42.5666 29.8643C40.0024 29.8706 37.4602 29.8518 34.918 29.8581C35.206 29.3179 35.5128 28.7903 35.8196 28.2596C37.958 24.5539 40.0651 20.7979 42.2066 17.0891C39.9304 13.1007 37.6199 9.14376 35.3312 5.16483C35.325 5.16483 35.3093 5.13971 35.325 5.14285H43.1928C44.1602 6.90777 45.1026 8.69468 46.0543 10.4722C47.0437 8.71038 47.9986 6.91405 48.9785 5.14285H56.5833C56.5896 5.17425 56.5677 5.2088 56.552 5.23392C54.3323 9.1469 52.0593 13.0724 49.8426 16.9917C52.3066 21.2815 54.8176 25.5682 57.2659 29.8486Z" fill="#272727"/>
<path d="M38.2563 14.7319C38.4567 15.5484 38.5725 16.4465 38.5725 17.3918C38.5725 20.3407 37.721 22.5264 36.5375 24.3039C36.3372 24.6054 36.1337 24.8943 35.9145 25.1707C35.2727 25.9872 34.4962 26.7315 33.629 27.3501C33.0466 27.7647 32.4393 28.1415 31.7661 28.4587C30.4261 29.0899 28.8075 29.583 26.9415 29.583C24.0236 29.583 21.8695 28.6911 20.1257 27.4663C18.3818 26.2384 17.023 24.6148 16.0994 22.5672C15.4795 21.1949 15.0725 19.6121 15.0255 17.6839C15.0036 16.7292 15.1226 15.7871 15.2948 14.9705C15.7331 12.9104 16.5941 11.2962 17.6836 9.90503C18.7731 8.51695 20.1538 7.43037 21.8226 6.61071C22.4769 6.29039 23.2096 6.01717 24.0079 5.81932C24.8063 5.62148 25.6891 5.48644 26.6441 5.48644H26.6597C27.5927 5.44247 28.582 5.59321 29.3585 5.76594C30.1662 5.94494 30.9145 6.21816 31.5814 6.51964C33.6477 7.45549 35.1881 8.85612 36.4279 10.6053C37.2451 11.7516 37.8587 13.1271 38.2563 14.7319ZM28.8638 22.9158C28.939 22.6144 28.917 22.2281 28.917 21.8292V12.7534C28.917 12.364 28.8732 12.0625 28.7605 11.7799C28.6572 11.5223 28.4975 11.2868 28.3097 11.0952C27.9433 10.7215 27.3923 10.3855 26.7004 10.4389C26.3654 10.464 26.0868 10.5708 25.8426 10.7247C25.3886 11.0136 25.0442 11.4564 24.9033 12.0437C24.8313 12.342 24.8345 12.722 24.8345 13.1145V22.1904C24.8345 22.3851 24.8251 22.5735 24.8501 22.74C24.9159 23.2173 25.1288 23.6005 25.4074 23.8862C25.7674 24.2537 26.3248 24.5614 27.0449 24.4829C27.9747 24.3824 28.6572 23.7638 28.8638 22.9158ZM15.3449 11.8835H7.02622C6.99178 12.9198 7.01995 14.0661 7.01056 15.1087C9.2585 15.1276 11.5409 15.1119 13.8045 15.115V21.8764C11.5252 21.8826 9.22719 21.8669 6.96047 21.8826C6.9636 24.5645 6.97612 27.1962 6.97612 29.8782C6.97612 29.8876 6.97296 29.8907 6.96986 29.8939H0.0350525C0.0225292 29.897 0.0225292 29.8876 0.0131366 29.8876C-0.00251755 21.6534 -0.00251755 13.3658 0.0100371 5.12843C0.0100371 5.11901 0.0100371 5.10645 0.0162675 5.10645H14.8721C14.8815 5.10645 14.8846 5.10645 14.8878 5.11273C15.0443 7.36756 15.1946 9.62553 15.3449 11.8835Z" fill="#272727"/>
</svg>

<svg width="58" height="35" viewBox="0 0 58 35" fill="none" xmlns="http://www.w3.org/2000/svg"><path d="M57.266 29.849h-7.83c-.072 0-.204-.318-.241-.384-1.077-1.95-2.154-3.91-3.225-5.856-1.146 2.072-2.26 4.18-3.403 6.255-2.565.007-5.107-.012-7.649-.006.288-.54.595-1.068.902-1.598 2.138-3.706 4.245-7.462 6.387-11.17C39.93 13.1 37.62 9.143 35.33 5.164c-.006 0-.022-.025-.006-.022h7.868c.967 1.765 1.91 3.552 2.861 5.33.99-1.763 1.945-3.559 2.924-5.33h7.605c.007.031-.015.066-.031.09-2.22 3.914-4.493 7.84-6.71 11.759 2.465 4.29 4.976 8.576 7.424 12.857z" fill="#272727"/><path d="M38.256 14.732c.2.816.316 1.715.316 2.66 0 2.949-.851 5.134-2.035 6.912-.2.301-.403.59-.623.867a11.183 11.183 0 0 1-2.285 2.18 12.06 12.06 0 0 1-1.863 1.108c-1.34.63-2.958 1.124-4.824 1.124-2.918 0-5.073-.892-6.816-2.117-1.744-1.228-3.103-2.851-4.027-4.899-.62-1.372-1.027-2.955-1.074-4.883-.021-.955.098-1.897.27-2.714.438-2.06 1.3-3.674 2.389-5.065 1.09-1.388 2.47-2.475 4.139-3.294.654-.32 1.387-.594 2.185-.792a10.926 10.926 0 0 1 2.636-.333h.016c.933-.044 1.922.107 2.698.28.808.179 1.556.452 2.223.754 2.067.935 3.607 2.336 4.847 4.085.817 1.147 1.43 2.522 1.828 4.127zm-9.392 8.184c.075-.302.053-.688.053-1.087v-9.076c0-.389-.044-.69-.157-.973a2.116 2.116 0 0 0-.45-.685c-.367-.373-.918-.71-1.61-.656a1.832 1.832 0 0 0-.857.286 2.12 2.12 0 0 0-.94 1.319c-.072.298-.069.678-.069 1.07v9.076c0 .195-.009.383.016.55.066.477.279.86.557 1.146.36.368.918.675 1.638.597.93-.1 1.612-.72 1.819-1.567zm-13.52-11.033H7.027c-.034 1.037-.006 2.183-.015 3.226 2.247.019 4.53.003 6.794.006v6.761c-2.28.007-4.578-.01-6.845.007.004 2.681.016 5.313.016 7.995 0 .01-.003.013-.006.016H.035c-.012.003-.012-.006-.022-.006A7243.7 7243.7 0 0 1 .01 5.128c0-.009 0-.022.006-.022h14.856c.01 0 .013 0 .016.007.156 2.255.307 4.513.457 6.77z" fill="#272727"/></svg>
